local/share/icons/dracula-icons-main/symbolic/devices/phonelink-lock-symbolic.svg

<?xml version="1.0" encoding="UTF-8"?>
<svg xmlns="http://www.w3.org/2000/svg" xmlns:xlink="http://www.w3.org/1999/xlink" width="16" height="16" viewBox="0 0 16 16">
<path fill-rule="nonzero" fill="rgb(33.333333%, 33.333333%, 33.333333%)" fill-opacity="1" d="M 8 5 C 6.902344 5 6 5.902344 6 7 L 6 8 L 5.546875 8 C 5.234375 8 5 8.171875 5 8.5 L 5 11 L 11 11 L 11 8.5 C 11 8.242188 10.789062 8 10.5 8 L 10 8 L 10 7 C 10 5.902344 9.097656 5 8 5 Z M 8 6 C 8.558594 6 9 6.441406 9 7 L 9 8 L 7 8 L 7 7 C 7 6.441406 7.441406 6 8 6 Z M 8 6 "/>
<path fill-rule="nonzero" fill="rgb(33.333333%, 33.333333%, 33.333333%)" fill-opacity="1" d="M 5 0 C 3.890625 0 3 0.890625 3 2 L 3 14 C 3 15.109375 3.890625 16 5 16 L 11 16 C 12.109375 16 13 15.109375 13 14 L 13 2 C 13 0.890625 12.109375 0 11 0 Z M 5 1 L 6 1 C 6 1.554688 6.445312 2 7 2 L 9 2 C 9.554688 2 10 1.554688 10 1 L 11 1 C 11.554688 1 12 1.445312 12 2 L 12 14 C 12 14.554688 11.554688 15 11 15 L 5 15 C 4.445312 15 4 14.554688 4 14 L 4 2 C 4 1.445312 4.445312 1 5 1 Z M 5 1 "/>
</svg>

<svg width="16" height="16" version="1.1" viewBox="0 0 16 16">
 <path d="m8 5c-1.0986 0-2 0.90135-2 2v1h-0.45312c-0.31289 0-0.54688 0.17178-0.54688 0.5v2.5h6v-2.5c0-0.25781-0.20999-0.5-0.5-0.5h-0.5v-1c0-1.0986-0.90135-2-2-2zm0 1c0.55821 0 1 0.44179 1 1v1h-2v-1c0-0.55821 0.44179-1 1-1z" fill="#555555"/>
 <path d="m5 0c-1.108 0-2 0.892-2 2v12c0 1.108 0.892 2 2 2h6c1.108 0 2-0.892 2-2v-12c0-1.108-0.892-2-2-2h-4zm0 1h1c0 0.554 0.446 1 1 1h2c0.554 0 1-0.446 1-1h1c0.554 0 1 0.446 1 1v12c0 0.554-0.446 1-1 1h-6c-0.554 0-1-0.446-1-1v-12c0-0.554 0.446-1 1-1z" fill="#555555"/>
</svg>
